admin/src/theme/img/safetyequipment/d.svg

<svg width="32" height="32" viewBox="0 0 32 32" xmlns="http://www.w3.org/2000/svg">
  <g fill="none" fill-rule="evenodd">
    <path d="M11.24 30.8571429h9.5257143V32H11.24v-1.1428571Zm9.1828571-17.3314286h-8.84L16 5.90857143l4.4171429 7.61714287h.0057142Zm-4.9885714.04h1.1428572v17.2971428h-1.1428572V13.56v.0057143Z" fill="#EC0E0E" fill-rule="nonzero"/>
    <path d="M0 0h32v32H0z"/>
  </g>
</svg>

<?xml version="1.0" encoding="UTF-8"?>
<svg width="32px" height="32px" viewBox="0 0 32 32" version="1.1" xmlns="http://www.w3.org/2000/svg" xmlns:xlink="http://www.w3.org/1999/xlink">
    <title>A1683F3C-797C-4AF4-A16E-7D4D54ECAA47</title>
    <g id="Squat-laskuri" stroke="none" stroke-width="1" fill="none" fill-rule="evenodd">
        <g id="colors_and_typography" transform="translate(-862.000000, -906.000000)">
            <g id="turvalaite_ikonit" transform="translate(718.000000, 906.000000)">
                <g id="lateraali_oikea" transform="translate(144.000000, 0.000000)">
                    <path d="M11.24,30.8571429 L20.7657143,30.8571429 L20.7657143,32 L11.24,32 L11.24,30.8571429 Z M20.4228571,13.5257143 L11.5828571,13.5257143 L16,5.90857143 L20.4171429,13.5257143 L20.4228571,13.5257143 Z M15.4342857,13.5657143 L16.5771429,13.5657143 L16.5771429,30.8628571 L15.4342857,30.8628571 L15.4342857,13.56 L15.4342857,13.5657143 Z" id="Shape" fill="#EC0E0E" fill-rule="nonzero"></path>
                    <rect id="Rectangle" x="0" y="0" width="32" height="32"></rect>
                </g>
            </g>
        </g>
    </g>
</svg>
